images/logo-16.svg

<svg enable-background="new 0 0 16 16" viewBox="0 0 16 16" xmlns="http://www.w3.org/2000/svg"><circle cx="8" cy="8" fill="#fff" r="7.9"/><g enable-background="new" fill="#b7d0d9"><path d="m7.5 9.7c-.1.2-.1.4-.2.6-.2.5-.4 1.1-.6 1.5-.2.3-.4.5-.6.5-.3.1-.7-.1-.9-.6-.4-.7.1-1.7-.3-2.6 0 0 0 0-.1 0-.1.2-.2.5-.2.7-.1.4-.2.7-.3 1.1-.1.2-.1.6-.3.8-.3.4-.9.4-1.2 0s-.4-1.1-.3-1.8c-.1.1-.3.1-.2-.1.2-.5.3-1.8 1-1.4.9.5.2 2.6.5 3.2h.1c.3-.4.4-1.1.4-1.4 0-.4.1-1.2.6-1.4.1 0 .7-.1 1 .5.3.7.1 1.8.2 2.2.1.6.2.5.4.2.2-.4.4-1 .6-1.4.1-.3.1-.5.2-.7 0-.1.1-.1.2-.1 0 .1.1.2 0 .2z"/><path d="m12.5 9.8c-.3.9-.7 1.9-1.1 2.8-.6 1.2-2 1.2-2.4-1.5v-.8c-.2.6-.4 1.3-.5 1.4s-.1.2-.4.2c-.6.1-1-.9-1-1.5 0-.9.2-1.6.6-2 .5-.4.9-.1 1.3.4.1-1.3.4-3.5.9-4.6 1.3-2.6 4.6-1.5 2.5 1.7-.6 1-1.4 1.7-2.4 2.3-.1.9-.1 1.8 0 2.8.1 1.3.3 2.5.8 1.9.4-.4.6-1.2.7-1.4.2-.6.5-1.2.7-1.8.2-.1.4-.1.3.1zm-3.5-.1c0-.2 0-.2 0-.6-.1-.2-.3-.4-.5-.5h-.1c-.3.7-.4 1.7-.1 2.5 0 0 .1.2.1.1.2-.4.5-1 .6-1.5zm1.1-1.8c.8-.5 1.4-1.1 1.9-1.8 2.1-3-.3-3.9-1.3-1.5-.3 1-.5 2.2-.6 3.3z"/></g></svg>

<?xml version="1.0" encoding="utf-8"?>
<!-- Generator: Adobe Illustrator 24.0.1, SVG Export Plug-In . SVG Version: 6.00 Build 0)  -->
<svg version="1.1" id="Layer_1" xmlns="http://www.w3.org/2000/svg" xmlns:xlink="http://www.w3.org/1999/xlink" x="0px" y="0px"
	 viewBox="0 0 16 16" style="enable-background:new 0 0 16 16;" xml:space="preserve">
<style type="text/css">
	.st0{fill:#FFFFFF;}
	.st1{enable-background:new    ;}
	.st2{fill:#CCABA6;}
</style>
<circle class="st0" cx="8" cy="8" r="7.9"/>
<g class="st1">
	<path class="st2" d="M7.5,9.7c-0.1,0.2-0.1,0.4-0.2,0.6c-0.2,0.5-0.4,1.1-0.6,1.5c-0.2,0.3-0.4,0.5-0.6,0.5
		c-0.3,0.1-0.7-0.1-0.9-0.6C4.8,11,5.3,10,4.9,9.1c0,0,0,0-0.1,0C4.7,9.3,4.6,9.6,4.6,9.8c-0.1,0.4-0.2,0.7-0.3,1.1
		c-0.1,0.2-0.1,0.6-0.3,0.8c-0.3,0.4-0.9,0.4-1.2,0s-0.4-1.1-0.3-1.8C2.4,10,2.2,10,2.3,9.8c0.2-0.5,0.3-1.8,1-1.4
		c0.9,0.5,0.2,2.6,0.5,3.2h0.1c0.3-0.4,0.4-1.1,0.4-1.4c0-0.4,0.1-1.2,0.6-1.4c0.1,0,0.7-0.1,1,0.5C6.2,10,6,11.1,6.1,11.5
		c0.1,0.6,0.2,0.5,0.4,0.2c0.2-0.4,0.4-1,0.6-1.4C7.2,10,7.2,9.8,7.3,9.6c0-0.1,0.1-0.1,0.2-0.1C7.5,9.6,7.6,9.7,7.5,9.7z"/>
	<path class="st2" d="M12.5,9.8c-0.3,0.9-0.7,1.9-1.1,2.8c-0.6,1.2-2,1.2-2.4-1.5v-0.8c-0.2,0.6-0.4,1.3-0.5,1.4s-0.1,0.2-0.4,0.2
		c-0.6,0.1-1-0.9-1-1.5c0-0.9,0.2-1.6,0.6-2C8.2,8,8.6,8.3,9,8.8c0.1-1.3,0.4-3.5,0.9-4.6c1.3-2.6,4.6-1.5,2.5,1.7
		c-0.6,1-1.4,1.7-2.4,2.3C9.9,9.1,9.9,10,10,11c0.1,1.3,0.3,2.5,0.8,1.9c0.4-0.4,0.6-1.2,0.7-1.4c0.2-0.6,0.5-1.2,0.7-1.8
		C12.4,9.6,12.6,9.6,12.5,9.8z M9,9.7c0-0.2,0-0.2,0-0.6C8.9,8.9,8.7,8.7,8.5,8.6H8.4C8.1,9.3,8,10.3,8.3,11.1c0,0,0.1,0.2,0.1,0.1
		C8.6,10.8,8.9,10.2,9,9.7z M10.1,7.9c0.8-0.5,1.4-1.1,1.9-1.8c2.1-3-0.3-3.9-1.3-1.5C10.4,5.6,10.2,6.8,10.1,7.9z"/>
</g>
</svg>
